!!!!SEGMENT: pl-wtm--r-2523_hertz-michal--upominek.krn
!!!cenid: 18xx:3095
!!!COM: Hertz, Michał
!!!COM-rismID: pe41023359
!!!CDT: 1844/09/28-~1918
!!!CNT: Polish
!!!OTL: Upominek
!!!PDT:
!!!AGN:
!!!SMS-siglum: PL-Wtm
!!!SMS-shelfmark: R 2523
!!!SMS-shelfwork: W
!!!SMS-variant:
!!!SMS-altvar:
!!!NIFC-rismSourceID: 1001085571
!!!NIFC-rismChildID: 1001085571
!!!NIFC-islandoraID:
!!!URL-pdf-islandora:
!!!URL-scan:
!!!IIIF:
!!!ONB-nifc:
!!!AIN: 1 piano 1 vox
!!!key: A
**kern	**kern	**kern	**text	**text
*part2	*part2	*part1	*part1	*part1
*staff3	*staff2	*staff1	*staff1	*staff1
*I"Fortepian	*I"Fortepian	*I"Głos	*	*
*Ipiano	*Ipiano	*Ivox	*	*
*ICklav	*ICklav	*ICvox	*	*
*IGacmp	*IGacmp	*IGsolo	*	*
*clefF4	*clefG2	*clefG2	*	*
*k[f#c#]	*k[f#c#]	*k[f#c#]	*	*
*A:	*A:	*A:	*	*
*M3/4	*M3/4	*M3/4	*	*
=1	=1	=1	=1	=1
8r	2.r	2.r	.	.
8E\	.	.	.	.
4.A\	.	.	.	.
8G#X\	.	.	.	.
=2	=2	=2	=2	=2
*	*^	*	*	*
8Gn\L	8r	4r	2.r	.	.
8F#\J	8d/	.	.	.	.
4.E\	4.gn/	8r	.	.	.
.	.	8B#</L	.	.	.
.	.	8c#</J	.	.	.
8D\	8f#/	8d 8A\	.	.	.
=3	=3	=3	=3	=3	=3
8C#\L	8e/L	8A#X\L	2.r	.	.
8BB\J	8f#J 8d/	8B\J	.	.	.
8r	8r	8ryy	.	.	.
8BB'/	8f# 8d	8B/	.	.	.
*	*Xtuplet	*Xtuplet	*	*	*
!LO:TUP:a:problem=klamra łukowa	!	!LO:TUP:b:problem=klamra łukowa	!	!	!
12AA\L	12f#/L	12d 12B\L	.	.	.
12GG\	12g/	12d 12B\	.	.	.
12EE#X\J	12g#X/J	12d 12B\J	.	.	.
=4	=4	=4	=4	=4	=4
4FF#/	8b/L	4d 4A/	2.r	.	.
.	8a/J	.	.	.	.
4AA/	4e 4 c# 4A/	2ryy	.	.	.
4r	4r	.	.	.	.
=5	=5	=5	=5	=5	=5
4D\	8a/	4f# 4d 4A/	8a/	Wczo-	Ges-
.	8ff#/	.	8a\	raj	-tern
4r	4ee/	4r	4.cc#\	da-	gab
4D\	4dd/	4f# 4d 4A#X/	.	.	.
.	.	.	8b\	-ła	sie
=6	=6	=6	=6	=6	=6
4GG/	8cc#/	(8f#L 8d 8B/	8a#X\	mi	mir
.	8a#/	8g/J)	8g#\	te	dies
8r	4cc#/	4r	4.gn\	kwia-	Sträuss-
4.E\	.	.	.	.	.
.	4b/	4g 4d 4B\	.	.	.
.	.	.	8f#\	-tki	-chen
!!LO:LB:g=original
=7	=7	=7	=7	=7	=7
4C#/	8a/	4g 4e 4A/	8a/	Co	Das
.	8b/	.	8e/	zry-	im
4BB/	8a/	4g 4d 4A/	8f#/	-wa-	Wald
.	8e/	.	8g/	-ła	wir
4AA/	8f#/	[>4g [<4c# [<4A/	8cc#/	ze	beid'
.	8g/	.	8b/	mną	ge-
=8	=8	=8	=8	=8	=8
8AA/L	4g/	8g]L 8c#] 8A\]	4a/	w le-	-pflü-
(>8BB/	.	(>8g 8d 8G\	.	.	.
8AA/)	4f#/	8f# 8d 8A\)	4f#/	-sie	-cket.
(8GG/	.	(>8e 8d 8B\	.	.	.
8FF#/	4b/	8d 8A\	4r	.	.
8AA/J)	.	8eJ 8c# 8A\)	.	.	.
*	*v	*v	*	*	*
=9	=9	=9	=9	=9
(4D\	4f# 4d 4A/	8f#/	Płyń-	Blu-
.	.	8a/	-cie	-men
4C#\	4f# 4e 4A#X/	4.ff#\	kwia-	schwimmt
8.BB\L	4f# 4d 4B/	.	.	.
.	.	8dd\	-tki	zu
16AA\Jk)	.	.	.	.
=10	=10	=10	=10	=10
*	*^	*	*	*
(8GG\L	2.g 2.d/	4B\	8cc#\	do	ih-
8D\J	.	.	8b\	jej	-rem
*Xtuplet	*	*2\right	*	*	*
12GG\L	.	2B-X\	4.dd\	cha-	Häus-
12DD\	.	.	.	.	.
12GG\J	.	.	.	.	.
8D\L	.	.	.	.	.
8GG\J)	.	.	8b-X\	-tki	-chen,
*	*v	*v	*	*	*
=11	=11	=11	=11	=11
4FF#/	4a 4d 4A\	8a/	Czy	Ob
.	.	8a#X/	was	sie
4EE/	4g 4d 4B\	8b/	po-	sich
.	.	8b##/	-zna	nach
4AA\	4f# 4c# 4G\	8cc#/	i	euch
.	.	8ff#/	pod-	wohl
=12	=12	=12	=12	=12
*	*^	*	*	*
8AA#/	4e 4c#/	4A\	4ee/	-nie-	bü-
8BB/L	.	.	.	.	.
8FF#X/	8d/L	4G\	4dd/	-sie.	-cken?
8EE/	8d 8A/	.	.	.	.
8C#/yy	8b 8d/	4G\	8r	.	.
8AA#/J	8aJ 8c#/	.	8r	.	.
*	*v	*v	*	*	*
!!LO:LB:g=original
=13	=13	=13	=13	=13
(<4D\	4f# 4d 4A/	8f#/	Płyń-	Blu-
.	.	8a/	-cie	-men
4C#X\	4f# 4e 4A#X/	(4.gg\	kwia-	schwimmt
8.BB/L	4f# 4d 4B/	.	.	.
.	.	8ff#\)	-tki	zu
16AA/Jk)	.	.	.	.
=14	=14	=14	=14	=14
*	*^	*	*	*
(8GG\L	2.g 2.d/	4B\	8ee\	do	ih-
8D\J	.	.	8dd\	jej	-rem
.	.	.	8qcc#/	.	.
12GG\L	.	2B-X\	4.dd\	cha-	Häus-
12DD\	.	.	.	.	.
12GG\J	.	.	.	.	.
8D\L	.	.	.	.	.
8GG\J)	.	.	8b-X\	-tki	-chen
=15	=15	=15	=15	=15	=15
4FF#/	4a 4d/	4A\	8a\	czy	Ob
.	.	.	8a#X\	was	sie
4EE/	8g 8d/	4B\	8b\	po-	sich
.	4g 4c#/yy	.	8b#X\	-zna	nach
4AA/	.	4c# 4G\	8cc#\	i	euch
.	8f#/	.	8ff#\	pod-	wohl
*	*v	*v	*	*	*
=16	=16	=16	=16	=16
4AA/	4e 4c# 4G/	4ee\	-nie-	bü-
8D\	8d 8A 8F#/	4dd\	-sie?	-cken?
4BB/	4d 4B 4F#/	.	.	.
.	.	4r	.	.
!LO:N:vis=4	!LO:N:vis=4	!	!	!
8C#/	8c# 8G#X 8E#X/	.	.	.
=17	=17	=17	=17	=17
8F#\L	4c#< 4A#X</L	8cc#\	Płyń-	Schwim-
8FF#\J	.	8cc#\	-cie	-me,
4.BB\	4.d< 4.B< 4.F#</	4.dd\	płyń-	schwimm'
8D\	8B< 8F#</	8b\	-cie	vo-
=18	=18	=18	=18	=18
4c# 4A#X 4F#/	8r	8cc#\	lu-	-ran
.	8f#/	8ff#\	-be	mein
4BB\	4b 4d 4B/	4dd\	kwia-	Sträus-
4D\	4f# 4B/	4b\	-tki	-schen
!!LO:PB:g=original
=19	=19	=19	=19	=19
8F#\L	4c#< 4A#X</	8cc#\	Wprzód	Eh'
8FF#\J	.	8cc#\	nim	ich
4.BB\	4.d#X< 4.B< 4.F#</	4.dd#X\	łód-	selben
8D#\	8B< 8F#</	8b\	-ka	den
=20	=20	=20	=20	=20
*^	*^	*	*	*
4c# 4A#X/	(4F#\	8r	4ryy	8cc#\	mnie	Kahn
.	.	8f#/	.	8ff#\	za-	be-
2ryy	4BB\)	4b/	4d# 4B\	4dd#X\	-nie-	-stei-
.	4D#X\	(<8f#/L	4B\	4b\	-sie	-ge!
.	.	8f##/J)	.	.	.	.
*	*	*v	*v	*	*	*
*v	*v	*	*	*	*
=21	=21	=21	=21	=21
8E\L	8g#XL 8B/	8g#X/	Gdy	Sieht
8G#X\J	8eJ 8B/	8e/	was	sie
4.A\	4.e 4.c#/	4.cc#\	uj-	schwim-
8G#\	8e 8B/	8b\	-rzy	-men
=22	=22	=22	=22	=22
*	*^	*	*	*
*	*tuplet	*	*Xbrackettup	*	*
!	!LO:TUP:b:problem=klamra łukowa	!	!LO:TUP:a:problem=klamra łukowa	!	!
4F#\	12bL 12a/	8d#X\L	12a/L	z	dich
.	12cc#/	.	12g#X/J	o-	.
.	.	8a\J	.	.	.
.	12dd#XJ 12b/	.	12f#/	-kna	vor's
4E\	8eeL 8b/	8g 8e\	4g#/	cha-	Häus-
.	8g#X/	8r	.	.	.
4G#X\	8cc#/	4e\	4e/	-tki	-chen,
.	8b/J	.	.	.	.
=23	=23	=23	=23	=23	=23
!	!	!LO:N:xstem	!	!	!
8A-X\L	8cc#/L	8e-X\	8ccn\	to	mach'
!	!	!LO:N:xstem	!	!	!
8cn\J	8a-X/J	8e-\	8a-X\	was	dass
!	!	!LO:N:xstem	!	!	!
4.d-\	4.ffn/	4a-X\	4.ffn\	po-	sie
!	!	!LO:N:xstem	!	!	!
.	.	4a-\	.	.	.
8cn\	8ee-X/	.	8ee-X\	-zna	sich
=24	=24	=24	=24	=24	=24
!	!LO:TUP:b:problem=klamra łukowa	!	!LO:TUP:a:problem=klamra łukowa	!	!
4B-X\	12ee-XL 12dd/	8g\L	12dd\L	i	zu
.	12ffn/	.	12ccn\J	.	.
.	.	8dd\J	.	.	.
.	12ggJ 12ee-/	.	12b-X\	pod-	dir
(<4A-X\	8aa-XL/	8ee- 8ccn\	4cc\	-nie-	nei-
.	8ccn/	8r	.	.	.
4cn\)	8ff/	4a-X\	4a-X\	-sie	-ge!
.	8ee-/J	.	.	.	.
*	*v	*v	*	*	*
!!LO:LB:g=original
=25	=25	=25	=25	=25
(4A-X\	(2ccn 2a-X (2e-X/	4.ccn\	To	mach'
4G\	.	.	.	.
.	.	8cc\	was	dass
[4F#\)	4dd- 4a-X 4d-/))	8ee-X\	po-	sie
.	.	8dd-X\	-zna	sich
=26	=26	=26	=26	=26
4F#\]	2dd 2b 2g#X/	8ddn\	i	zu
.	.	8dd\	pod-	dir
4F-X\	.	(8gg#X\L	-nie-	nei-
.	.	8dd\J	.	.
4E-X\	4ee-X 4b-X 4g#/	4ee-X\)	-sie	-ge
=27	=27	=27	=27	=27
*^	*	*	*	*
8r	8D\	8een 8bn 8g#X/	2.r	.	.
8G#X/	8r	8r	.	.	.
4.c#/	4r	4r	.	.	.
.	4r	4r	.	.	.
8B/	.	.	.	.	.
*v	*v	*	*	*	*
=28	=28	=28	=28	=28
*	*^	*	*	*
8C#/	8f#X/L	8A\	2.r	.	.
8r	8e/J	8r	.	.	.
4r	4.b/	4r	.	.	.
4r	.	4r	.	.	.
.	8a/	.	.	.	.
*	*v	*v	*	*	*
=29	=29	=29	=29	=29
8r>	4a/	2.r	.	.
8e> 8c#>\	.	.	.	.
2B>\	4.g#X 4.e/	.	.	.
.	8gn 8d/	.	.	.
=30	=30	=30	=30	=30
*	*^	*	*	*
4ryy	4g/	8r	2.r	.	.
.	.	8d 8B-X\	.	.	.
8A>\L	4.f#/	4d\	.	.	.
8Gn>\J	.	.	.	.	.
4A>\	.	4c#\	.	.	.
.	8e/	.	.	.	.
*	*v	*v	*	*	*
!!LO:LB:g=original
=31	=31	=31	=31	=31
4D\	4f# 4d 4A/	8a/	Przy-	S'kam
.	.	8a#\	szły	der
4r	8aa 8a\L	4.a#\	kwiat-	Strauss,
.	8ff# 8f#\J	.	.	.
4D\	4f# 4d 4A#X/	.	.	.
.	.	8b\	ki	den
=32	=32	=32	=32	=32
4GG/	8f#L 8d 8B/	8cc#\	do	er
.	8g/J	8b\	o-	ihr
4r	4r	4b\	-gród-	sand-
4E\	4g 4d 4B/	8a#X\L	.	.
.	.	8b\J	-ka	-te,
=33	=33	=33	=33	=33
4C#/	4g 4e 4A/	8a/	Lecz	Un-
.	.	8e/	ich	-er-
4BB/	4g 4d 4A/	8f#/	dzie-	-kannt
.	.	8g/	-wczę	schwamm
4AA/	4g 4c# 4A/	8b/	nie-	er
.	.	8a/	-po-	vor-
=34	=34	=34	=34	=34
4BB/	4g 4d 4G/	4g/	-zna-	-ü-
8AA/L	8f#L 8d 8A/	4f#/	-ło	-ber;
8GG/J	8eJ 8d 8B/	.	.	.
8FF#/L	8aL 8d 8A/	4r	.	.
8AA/J	8eJ 8c# 8A/	.	.	.
=35	=35	=35	=35	=35
4D\	4f# 4d 4A/	8f#/	Przy-	s'kam
.	.	8g/	-szła	der
4C#\	4f# 4e 4A#X/	4.a\	z fa-	Kahn
(8BB/L	4f# 4d 4B/	.	.	.
8AA/J)	.	8dd\	-lą	der
!!LO:PB:g=original
=36	=36	=36	=36	=36
*	*^	*	*	*
(8.GG\L	2g 2d/	(4B\	8b\	zna-	wohl-
.	.	.	8dd\	-na	-be-
16BB\Jk	.	.	.	.	.
12GG\L	.	4B-X\)	4.dd\	łód-	-kann-
12DD\	.	.	.	.	.
12GG\J	.	.	.	.	.
*	*v	*v	*	*	*
8.D\L	4r	.	.	.
.	.	8b-X\	ka	-te,
16GG\Jk)	.	.	.	.
=37	=37	=37	=37	=37
*	*^	*	*	*
4FF#/	8r	4d 4A\	8a\	Lecz	Doch
.	8a/	.	8a#X\	ster-	im
4EE/	4g/	4d 4G\	8cc#/	-ni-	Kah-
.	.	.	8b/	-ka	-ne
4AA/	4f#/	4c# 4G\	8.a#/	jej	fehlt
.	.	.	16e/	nie	ihr
=38	=38	=38	=38	=38	=38
(4AA#X/	(>4e/	4c# 4G\	4g/	sta-	Lie-
8BB/L)	8dL)	8B 8F#\L	4f#/	-ło.	-ber
(8FF#/	(<8d	8A\J	.	.	.
8EE/	8b 8d/	4G\	4r	.	.
8AA#/J)	8aJ 8c#/)	.	.	.	.
*	*v	*v	*	*	*
=39	=39	=39	=39	=39
4D/	4f# 4d 4A/	8f#/	Przy-	s'kam
.	.	8a/	-szła	der
4C#/	4f# 4A#X/	4.gg\	z fa-	Kahn
8BB/L	4f# 4d 4B/	.	.	.
8AA/J	.	8ff#\	-lą	der
=40	=40	=40	=40	=40
*	*^	*	*	*
(8.GG\L	2g 2d/	(4B\	8ee\	zna-	wohl-
.	.	.	8dd\	-na	-be-
16BB\Jk	.	.	.	.	.
12GG\L	.	4B-X\)	4.dd\	łód-	-kann-
12DD\	.	.	.	.	.
12GG\J	.	.	.	.	.
8D\L	4r	8ryy	.	.	.
8GG\J)	.	8B-\	8b-X\	-ka	-te
!!LO:LB:g=original
=41	=41	=41	=41	=41	-
*^	*	*	*	*	*
*	*	*	*	*	*above	*above
4.C#X/	4.AA\	4rD	8A</L	8a/	Lecz	doch
.	.	.	8G#X</J	8a/	ster-	im
.	.	4rD	4.Gn</	4.ee\	-ni-	Kah-
8BB#X/	8AA\L	.	.	.	.	.
4C#/	8AA\	8rD	.	.	.	.
.	8GG\J	8ryy	8e< 8A</	8ee\	-ka	-ne
*v	*v	*	*	*	*	*
=42	=42	=42	=42	=42	=42
8D 8FFn\L	8d</L	4A<\	8dd\	jej	fehlt
8C#XJ 8EE\	8e</J	.	8ee\	nie	ihr
!	!	!LO:TX:t=P:problem=mixed beam	!	!	!
8D 8DD\	8ryy	8fn< 8A</L	8ffn\	sta-	Lie-
8ryy	8b-/	8d 8G\J	8dd\	-ło	-ber
4ryy	8a/L	8d 8Fn\L	4r	.	.
.	8e/J	8c#X 8A\J	.	.	.
!!LO:LB:g=original
=43	=43	=43	=43	=43	=43
8d>\	8f#/L	[>2.d/	2.r	.	.
4cn>\	8a/J	.	.	.	.
.	4.dd/	.	.	.	.
8B>\L	.	.	.	.	.
8B-X>\	.	.	.	.	.
8A>\J	8ccn/	.	.	.	.
=44	=44	=44	=44	=44	=44
4.G>\	8b-X/L	8d/]	2.r	.	.
.	8g/J	[>4.e-X\	.	.	.
.	4.ccn/	.	.	.	.
8F#X>\L	.	.	.	.	.
8G>\J	.	8e-/L]	.	.	.
8ryy	8b-/	8d/J	.	.	.
=45	=45	=45	=45	=45	=45
*	*^	*	*	*	*
*2\right	*	*	*	*	*below	*below
[2A\	4r	8a/L	4c#X\	8g#/	Lecz	doch
.	.	8g#X/J	.	8a/	ster-	im
.	4r	4.gn/	8ryy	4.ee\	-ni-	Kah-
.	.	.	8B#X\	.	.	.
8A\L]	8r	.	4c#\	.	.	.
8G\J	8ryy	8ee 8a/	.	8a/	-ka	-ne
*	*v	*v	*	*	*	*
*	*v	*v	*	*	*
=46	=46	=46	=46	=46
*^	*	*	*	*
8d/L	8Fn\L	8ddL 8a\	8dd\	jej	felht
8c#X/J	8E\J	8eeJ 8a\	8ee\	nie	ihr
8d/	8D\	8ffn 8a\	8ffn\	sta-	Lie-
8B-X/L	8DL 8GG\	8ryy	8dd\	-ło	-ber
8A/	8D 8FFn\	4ryy	4r	.	.
8G/J	8DJ 8EE\	.	.	.	.
*v	*v	*	*	*	*
=47	=47	=47	=47	=47
8AA\L	2.A< 2.C#X</	4r	.	.
8GG#X\J	.	.	.	.
4.GGn\	.	8r	.	.
.	.	4a/	Lecz	doch
8GG\	.	8a/	ster-	im
=48	=48	=48	=48	=48
*^	*^	*	*	*
*	*	*	*	*2\right	*	*
!	!LO:N:vis=2	!	!	!	!	!
2.D\	4FF#\	4B-X</	4r<	2dd\	-ni-	Kah-
.	4FFn\	2A</	4r<	.	.	.
.	8EE\L	.	8G<\L	4a/	-ka	-ne
.	8DD\J	.	8Fn<\J	.	.	.
*v	*v	*	*	*	*	*
=49	=49	=49	=49	=49	=49
2.C#X 2.EE\	2A</	8A</L	4r	.	.
.	.	8G#X</J	.	.	.
.	.	4.Gn</	8r	.	.
.	.	.	4a/	jej	fehlt
.	4ryy	.	.	.	.
.	.	8G</	8a/	nie	ihr
=50	=50	=50	=50	=50	=50
2F#X 2D 2DD\	4B-X</	4ryy	2dd\	sta-	Lie-
.	2A</	4Fn<\	.	.	.
8GG\L	.	8E</L	4a/	-ło!	-ber
8FF#\J	.	8D</J	.	.	.
*	*v	*v	*	*	*
!!LO:LB:g=original
=51	=51	=51	=51	=51
4EE\	4A< 4G< 4C#X</	4r	.	.
4.DD\	2A< 2Fn< 2D</	4r	.	.
*	*	*	*above	*
.	.	8a/	Lecz	doch
8CCn\	.	8a/	ster-	im
=52	=52	=52	=52	=52
8BBB-X\L	2B-X< 2Fn< 2D</	4.b-X\	-ni-	Kah-
8AAA\J	.	.	.	.
8GGG\	.	.	.	.
8r	.	8b-\	-ka	-ne
8ryy	8r<	8ccn\	jej	felht
8BB-y\	8B-X< 8E< 8D</	8dd\	nie	ihr
=53	=53	=53	=53	=53
2A 2C#/	2.ryy	4dd/	sta-	Lie-
.	.	4b/	-ło	-ber
4A 4C#/	.	4r	.	.
==	==	==	==	==
*-	*-	*-	*-	*-
!!!system-decoration: s1{(s2,s3)}
!!!RDF**kern: > = above
!!!RDF**kern: < = below
!!!ENC: Marta Opryszak
!!!END: 2021-11-21
!!!ENC: Marta Lawrence
!!!END: 2021-12-17
!!!YEC: Copyright 2022 Narodowy Instytut Fryderyka Chopina (https://polishscores.org)
!!!YEM: License CC-BY-4.0 (https://creativecommons.org/licenses/by/4.0)
